svg/锁定.svg

<svg width="24" height="24" viewBox="0 0 24 24" fill="none" xmlns="http://www.w3.org/2000/svg"><path d="M20 11H4C3.44772 11 3 11.4477 3 12V21C3 21.5523 3.44772 22 4 22H20C20.5523 22 21 21.5523 21 21V12C21 11.4477 20.5523 11 20 11Z" stroke="#0D131A" stroke-width="1.5" stroke-linejoin="round"/><path d="M7 11V7C7 4.23857 9.2386 2 12 2C14.7614 2 17 4.23857 17 7V11" stroke="#0D131A" stroke-width="1.5" stroke-linecap="round" stroke-linejoin="round"/><path d="M12 15V18" stroke="#0D131A" stroke-width="1.5" stroke-linecap="round" stroke-linejoin="round"/></svg>

<svg fill="none" viewBox="0 0 24 24"><path stroke="#0D131A" stroke-linejoin="round" stroke-width="1.5" d="M20 11H4a1 1 0 0 0-1 1v9a1 1 0 0 0 1 1h16a1 1 0 0 0 1-1v-9a1 1 0 0 0-1-1Z"/><path stroke="#0D131A" stroke-linecap="round" stroke-linejoin="round" stroke-width="1.5" d="M7 11V7a5 5 0 0 1 10 0v4"/><path stroke="#0D131A" stroke-linecap="round" stroke-linejoin="round" stroke-width="1.5" d="M12 15v3"/></svg>
